X: 2 % start of header
T:Torus:Taurus Tune
T:29 of 100,000,000,000,000
C: (Sid.)
O: Jeff Minter
R:Procedurally Generated
L: 1/8
K: D % scale: C major
V:1 name="Voice 1"
^F,16    |     |     |     | ^F,16    |     |     |     | C16    |     |     |     | ^A,16    |     |     |     | :|
V:2 name="Voice 2"
A,4    | A,4    | ^D4    | ^C4    | A,4    | A,4    | ^D4    | ^C4    | ^D4    | ^D4    | A4    | G4    | ^C4    | ^C4    | G4    | F4    | :|
V:3 name="Voice 3"
C1C1^F1E1|C1C1^F1E1|^F1^F1c1^A1|E1E1^A1^G1|C1C1^F1E1|C1C1^F1E1|^F1^F1c1^A1|E1E1^A1^G1|^F1^F1c1^A1|^F1^F1c1^A1|c1c1^f1e1|^A1^A1e1d1|E1E1^A1^G1|E1E1^A1^G1|^A1^A1e1d1|^G1^G1d1c1|:|
